X: 32286
T: Pig's Will
R: reel
M: 4/4
K: Fdorian
|:Bd|eAGA eAGA|eAGA A2 Bc|dcBA GABc|dcBA G4|
A3 B ABcd|efge d2 ed|cA (3AcA BAGB|A2 A>B A2:|
|:Bd|eaab c'bag|eaaf g2 ag|eaag efge|dBGB d4|
A2 AG ABcd|efge d2 ed|cA (3AcA BAGB|A2 A>B A2:|

